svg/u1f468_1f3ff_200d_2764_200d_1f468_1f3fd.svg

<svg viewBox="0 0 128 128" xmlns="http://www.w3.org/2000/svg">
  <g>
    <linearGradient id="SVGID_1_" gradientUnits="userSpaceOnUse" x1="30.7366" x2="30.7366" y1="123.5179" y2="110.8654">
      <stop offset="0" stop-color="#006C7D"/>
      <stop offset="1" stop-color="#007689"/>
    </linearGradient>
    <path d="M34.5,111.11h-3.76h-3.76C18.28,110.45,5.41,114.36,2.5,124h28.23h28.23 C56.07,114.36,43.19,110.45,34.5,111.11z" fill="url(#SVGID_1_)"/>
    <path id="neck_1_" d="M30.5,117.83L30.5,117.83c-3.76,0-6.8-3.05-6.8-6.8v-4.54H37.3v4.54 C37.3,114.79,34.25,117.83,30.5,117.83z" fill="#3C2B24"/>
    <g id="face_1_">
      <g id="ears_1_">
        <path d="M53.36,84.31l-5.18-0.64l-28.03-3.44l-5.18-0.64c-4.14-0.51-7.97,2.68-8.51,7.09 s2.4,8.43,6.54,8.94l5.18,0.64l28.03,3.44l5.18,0.64c4.14,0.51,7.97-2.68,8.51-7.09S57.5,84.81,53.36,84.31z" fill="#3C2B24"/>
      </g>
      <g id="head_1_">
        <path d="M37.09,53.6L37.09,53.6L37.09,53.6C24.87,52.1,11.95,63.78,9.64,82.58 c-2.3,18.71,8.23,29.39,20.11,30.85s24.68-6.36,26.97-25.07C59.03,69.56,49.31,55.1,37.09,53.6z" fill="#70534A"/>
      </g>
      <g id="eyebrows_1_">
        <path d="M16.21,79.83c2.62-2.89,7.89-2.36,10.19,0.67c0.4,0.52,0.81,1.19,0.38,1.83 c-0.47,0.71-1.23,0.49-1.84,0.15c-1.62-0.9-3.34-1.42-5.22-1.27c-0.81,0.06-1.53,0.31-2.32,0.48 C16.33,81.91,15.43,80.73,16.21,79.83z" fill="#1A1717"/>
        <path d="M48.62,85.53c-1.48-0.87-3.02-1.46-4.77-1.48c-0.8-0.01-1.59,0.1-2.36,0.3 c-0.61,0.16-1.28,0.46-1.83-0.03c-1.57-1.39,1.71-2.95,2.66-3.23c2.04-0.6,4.34-0.24,6.1,0.97c0.7,0.48,1.44,1.14,1.79,1.93 C50.63,84.98,49.65,86.1,48.62,85.53z" fill="#1A1717"/>
      </g>
      <g id="eyes_1_">
        <ellipse cx="20.81" cy="86.16" fill="#1A1717" rx="3.61" ry="3.49" transform="matrix(0.1219 -0.9925 0.9925 0.1219 -67.2451 96.3117)"/>
        <ellipse cx="44.16" cy="89.03" fill="#1A1717" rx="3.61" ry="3.49" transform="matrix(0.1219 -0.9925 0.9925 0.1219 -49.5811 122.0129)"/>
      </g>
      <path id="nose_1_" d="M34.4,94.42c-0.07-0.04-0.14-0.07-0.22-0.09l-4.97-0.61c-0.08,0-0.16,0.01-0.23,0.03 c-0.47,0.13-0.78,0.56-0.63,1.09c0.15,0.52,0.97,2.04,2.96,2.28c1.99,0.24,3.15-1.03,3.43-1.5C35.02,95.15,34.83,94.66,34.4,94.42 z" fill="#33251F"/>
      <path id="mouth_1_" d="M36.9,100.49c-2.4,1.06-9.73,0.16-11.81-1.45c-1.19-0.92-2.65,0.09-2.26,1.32 c0.38,1.21,4.06,4.36,7.52,4.79s7.74-1.75,8.4-2.84C39.43,101.21,38.28,99.88,36.9,100.49z" fill="#1A1717"/>
    </g>
    <g>
      <path id="hair_2_" d="M38.17,49.36L38.17,49.36c0,0-0.01,0-0.01,0c0,0-0.01,0-0.01,0l0,0 C6.22,45.61,8.28,82.86,8.28,82.86s0.97,3.93,1.42,5.67c0.06,0.25,0.41,0.27,0.5,0.02c1.06-2.96,3.87-13.71,5.51-16.84 c0.97-1.85,3.11-2.72,5.1-2.11c4.96,1.53,13.55,2.95,13.57,2.95c5.5,0.67,11.53,0.83,14.72,0.64c2.08-0.12,3.95,1.25,4.44,3.28 c0.83,3.42,1.94,14.47,2.25,17.64c0.03,0.26,0.37,0.33,0.49,0.1l2.76-5.13C59.05,89.09,70.06,53.45,38.17,49.36z" fill="#232020"/>
      <radialGradient id="hairHighlights_2_" cx="20.4835" cy="143.9085" gradientTransform="matrix(0.9925 0.1219 -0.1375 1.1198 33.9053 -84.0393)" gradientUnits="userSpaceOnUse" r="26.9515">
        <stop offset="0.7945" stop-color="#444140" stop-opacity="0"/>
        <stop offset="1" stop-color="#444140"/>
      </radialGradient>
      <path id="hairHighlights" d="M59.05,89.09c0,0,11.01-35.64-20.88-39.73l0,0 c0,0-0.01,0-0.01,0l0,0c0,0-0.01,0-0.01,0l0,0c-0.5-0.06-0.98-0.11-1.46-0.15c-0.96-0.08-1.88-0.12-2.78-0.12 c-0.01,0-0.02,0-0.03,0c-0.06,0-0.12,0-0.19,0C6.42,49.18,8.28,82.86,8.28,82.86l1.43,5.65c0.06,0.25,0.41,0.27,0.5,0.03 c1.07-2.99,3.87-13.7,5.5-16.82c0.97-1.85,3.11-2.73,5.1-2.11c3.06,0.95,7.95,2.26,13.45,2.94c0.02,0,1,0.24,1.02,0.25 c0.02,0,0.04,0.01,0.06,0.01c5.5,0.67,10.56,0.58,13.76,0.4c2.08-0.12,3.95,1.25,4.44,3.28c0.83,3.44,1.95,14.57,2.26,17.68 c0.02,0.26,0.36,0.32,0.49,0.1C57.15,92.69,59.05,89.09,59.05,89.09z" fill="url(#hairHighlights_2_)"/>
    </g>
  </g>
  <g>
    <path d="M78.41,3.74C67.87,3.74,64,14.5,64,14.5S60.18,3.74,49.57,3.74c-7.97,0-17.07,6.32-13.71,20.68 c3.36,14.36,28.16,32.26,28.16,32.26s24.72-17.9,28.08-32.26C95.46,10.06,87.02,3.74,78.41,3.74z" fill="#EF5592"/>
    <g>
      <path d="M47.94,4.81c8.27,0,12.38,8.89,13.71,12.5c0.19,0.51,0.91,0.53,1.12,0.03l1.21-2.83 c-1.71-5.45-6.4-10.77-14.41-10.77c-3.32,0-6.82,1.1-9.55,3.41C42.42,5.56,45.25,4.81,47.94,4.81z" fill="#DA2E75"/>
      <path d="M78.41,3.74c-2.55,0-4.7,0.74-6.51,1.85c1.27-0.49,2.68-0.78,4.23-0.78 c7.8,0,14.77,5.91,11.62,19.58c-2.7,11.73-18.5,25.96-23.32,31.39c-0.31,0.35-0.41,0.91-0.41,0.91s24.72-17.9,28.08-32.26 C95.46,10.06,86.38,3.74,78.41,3.74z" fill="#DA2E75"/>
    </g>
    <path d="M41.4,11.36c1.8-2.25,5.03-4.11,7.76-1.97c1.48,1.16,0.83,3.54-0.49,4.54 c-1.93,1.46-3.6,2.34-4.77,4.63c-0.7,1.38-1.13,2.88-1.34,4.42c-0.08,0.61-0.88,0.75-1.18,0.22 C39.34,19.6,38.77,14.65,41.4,11.36z" fill="#F386AB"/>
    <path d="M70.31,16.09c-0.85,0-1.44-0.82-1.13-1.61c0.57-1.45,1.31-2.86,2.2-4.11 c1.32-1.85,3.82-2.92,5.41-1.81c1.63,1.15,1.42,3.43,0.27,4.54C74.61,15.49,71.53,16.09,70.31,16.09z" fill="#F386AB"/>
  </g>
  <g>
    <linearGradient id="SVGID_2_" gradientUnits="userSpaceOnUse" x1="97.2363" x2="97.2363" y1="123.5179" y2="110.8654">
      <stop offset="0" stop-color="#009E89"/>
      <stop offset="1" stop-color="#00BFA5"/>
    </linearGradient>
    <path d="M101,111.11h-3.76h-3.76C84.78,110.45,71.91,114.36,69,124h28.23h28.23 C122.57,114.36,109.69,110.45,101,111.11z" fill="url(#SVGID_2_)"/>
    <path id="neck" d="M97,117.83L97,117.83c-3.76,0-6.8-3.05-6.8-6.8v-4.54h13.61v4.54 C103.8,114.79,100.75,117.83,97,117.83z" fill="#99674F"/>
    <g id="face_121_">
      <g id="ears_152_">
        <path d="M112,79.66l-5.18,0.64l-28.03,3.44l-5.18,0.64c-4.14,0.51-7.08,4.53-6.54,8.94 c0.54,4.41,4.37,7.6,8.51,7.09l5.18-0.64l28.03-3.44l5.18-0.64c4.14-0.51,7.08-4.53,6.54-8.94 C119.97,82.35,116.14,79.16,112,79.66z" fill="#99674F"/>
      </g>
      <g id="head_344_">
        <path d="M89.33,53.67L89.33,53.67L89.33,53.67c-12.22,1.5-21.94,15.96-19.63,34.77 c2.3,18.71,15.09,26.52,26.97,25.07c11.88-1.46,22.4-12.14,20.11-30.85C114.47,63.85,101.55,52.17,89.33,53.67z" fill="#BA8D68"/>
      </g>
      <g id="eyebrows_174_">
        <path d="M74.86,84.31c1.85-3.44,7.08-4.19,10.05-1.82c0.51,0.41,1.07,0.96,0.81,1.68 c-0.29,0.8-1.08,0.77-1.75,0.59c-1.79-0.48-3.59-0.57-5.38,0.03c-0.77,0.26-1.41,0.67-2.13,1.03 C75.49,86.3,74.33,85.37,74.86,84.31z" fill="#613E31"/>
        <path d="M107.69,82c-1.65-0.49-3.28-0.69-4.99-0.28c-0.77,0.19-1.52,0.49-2.22,0.87 c-0.55,0.3-1.14,0.75-1.79,0.42c-1.86-0.97,0.95-3.28,1.8-3.78c1.84-1.08,4.16-1.28,6.15-0.53c0.79,0.3,1.67,0.76,2.2,1.44 C109.51,80.98,108.83,82.3,107.69,82z" fill="#613E31"/>
      </g>
      <g id="eyes_171_">
        <ellipse cx="80.86" cy="89.34" fill="#49362E" rx="3.49" ry="3.61" transform="matrix(0.9925 -0.1219 0.1219 0.9925 -10.2849 10.5202)"/>
        <ellipse cx="104.22" cy="86.47" fill="#49362E" rx="3.49" ry="3.61" transform="matrix(0.9925 -0.1219 0.1219 0.9925 -9.7613 13.3453)"/>
      </g>
      <path id="nose_173_" d="M96.04,94.06c-0.08-0.02-0.16-0.03-0.23-0.03l-4.97,0.61 c-0.07,0.02-0.15,0.05-0.22,0.09c-0.43,0.24-0.62,0.73-0.34,1.21c0.27,0.47,1.43,1.74,3.43,1.5c1.99-0.24,2.81-1.76,2.96-2.28 C96.82,94.63,96.52,94.19,96.04,94.06z" fill="#99674F"/>
      <path id="mouth_99_" d="M99.94,99.35c-2.07,1.61-9.41,2.51-11.81,1.45c-1.38-0.61-2.55,0.72-1.87,1.83 c0.66,1.08,4.99,3.25,8.45,2.83c3.46-0.42,7.08-3.57,7.47-4.78C102.57,99.44,101.13,98.43,99.94,99.35z" fill="#5D4037"/>
    </g>
    <g id="hair">
      <path id="hair_588_" d="M88.81,49.43L88.81,49.43c0,0-0.01,0-0.01,0c0,0-0.01,0-0.01,0l0,0 C56.9,53.53,67.91,89.17,67.91,89.17s1.89,3.58,2.75,5.16c0.12,0.23,0.47,0.16,0.49-0.1c0.31-3.13,0.44-14.24,1.27-17.67 c0.49-2.03,2.36-3.39,4.44-3.28c5.19,0.28,13.86-0.41,13.88-0.42c5.5-0.67,11.38-1.99,14.44-2.94c1.99-0.62,4.14,0.26,5.1,2.11 c1.63,3.12,5.39,13.57,6.46,16.57c0.09,0.25,0.44,0.23,0.5-0.03l1.43-5.64C118.68,82.93,120.74,45.69,88.81,49.43z" fill="#543930"/>
      <radialGradient id="hairHighlights_3_" cx="117.7891" cy="8.9382" gradientTransform="matrix(0.9925 -0.1219 0.1375 1.1198 -25.6297 84.0271)" gradientUnits="userSpaceOnUse" r="26.9515">
        <stop offset="0.7945" stop-color="#6D4C41" stop-opacity="0"/>
        <stop offset="1" stop-color="#6D4C41"/>
      </radialGradient>
      <path id="hairHighlights_1_" d="M118.68,82.93c0,0,2.06-37.25-29.87-33.5l0,0 c0,0-0.01,0-0.01,0l0,0c0,0-0.01,0-0.01,0l0,0c-0.5,0.06-0.98,0.13-1.46,0.21c-0.95,0.16-1.85,0.34-2.72,0.56 c-0.01,0-0.02,0-0.03,0.01c-0.06,0.02-0.12,0.03-0.18,0.05c-26.45,6.68-16.49,38.91-16.49,38.91l2.75,5.13 c0.12,0.23,0.46,0.16,0.49-0.1c0.31-3.16,0.44-14.22,1.27-17.65c0.49-2.03,2.36-3.4,4.44-3.28c3.2,0.18,8.26,0.27,13.76-0.4 c0.02,0,1.03-0.01,1.05-0.01c0.02,0,0.04,0,0.06-0.01c5.5-0.67,10.39-1.99,13.45-2.94c1.99-0.62,4.14,0.26,5.1,2.11 c1.64,3.14,5.42,13.66,6.47,16.61c0.09,0.24,0.43,0.23,0.5-0.02C117.7,86.88,118.68,82.93,118.68,82.93z" fill="url(#hairHighlights_3_)"/>
    </g>
  </g>
</svg>

<svg viewBox="0 0 128 128" xmlns="http://www.w3.org/2000/svg">
  <defs>
    <linearGradient id="SVGID_1_" gradientUnits="userSpaceOnUse" x1="30.7366" x2="30.7366" y1="123.5179" y2="110.8654">
      <stop offset="0" stop-color="#006C7D"/>
      <stop offset="1" stop-color="#007689"/>
    </linearGradient>
    <linearGradient id="SVGID_2_" gradientUnits="userSpaceOnUse" x1="97.2363" x2="97.2363" y1="123.5179" y2="110.8654">
      <stop offset="0" stop-color="#009E89"/>
      <stop offset="1" stop-color="#00BFA5"/>
    </linearGradient>
    <radialGradient id="hairHighlights_2_" cx="43.894795" cy="66.311485" gradientTransform="matrix(0.9925 0.1219 -0.1375 1.1198 0 0)" gradientUnits="userSpaceOnUse" r="26.9515">
      <stop offset="0.7945" stop-color="#444140" stop-opacity="0"/>
      <stop offset="1" stop-color="#444140"/>
    </radialGradient>
    <radialGradient id="hairHighlights_3_" cx="82.108198" cy="80.091619" gradientTransform="matrix(0.9925 -0.1219 0.1375 1.1198 0 0)" gradientUnits="userSpaceOnUse" r="26.9515">
      <stop offset="0.7945" stop-color="#6D4C41" stop-opacity="0"/>
      <stop offset="1" stop-color="#6D4C41"/>
    </radialGradient>
  </defs>
  <path d="M34.5,111.11 L30.74,111.11 L26.98,111.11 C18.28,110.45 5.41,114.36 2.5,124 L30.73,124 L58.96,124 C56.07,114.36 43.19,110.45 34.5,111.11 Z" fill="url(#SVGID_1_)"/>
  <path id="neck_1_" d="M30.5,117.83 L30.5,117.83 C26.74,117.83 23.7,114.78 23.7,111.03 L23.7,106.49 L37.3,106.49 L37.3,111.03 C37.3,114.79 34.25,117.83 30.5,117.83 Z" fill="#3C2B24"/>
  <path d="M53.36,84.31 L48.18,83.67 L20.15,80.23 L14.97,79.59 C10.83,79.08 7,82.27 6.46,86.68 C5.92,91.09 8.86,95.11 13,95.62 L18.18,96.26 L46.21,99.7 L51.39,100.34 C55.53,100.85 59.36,97.66 59.9,93.25 C60.44,88.84 57.5,84.81 53.36,84.31 Z" fill="#3C2B24"/>
  <path d="M37.09,53.6 L37.09,53.6 L37.09,53.6 C24.87,52.1 11.95,63.78 9.64,82.58 C7.34,101.29 17.87,111.97 29.75,113.43 C41.63,114.89 54.43,107.07 56.72,88.36 C59.03,69.56 49.31,55.1 37.09,53.6 Z" fill="#70534A"/>
  <path d="M16.21,79.83 C18.83,76.94 24.1,77.47 26.4,80.5 C26.8,81.02 27.21,81.69 26.78,82.33 C26.31,83.04 25.55,82.82 24.94,82.48 C23.32,81.58 21.6,81.06 19.72,81.21 C18.91,81.27 18.19,81.52 17.4,81.69 C16.33,81.91 15.43,80.73 16.21,79.83 Z" fill="#1A1717"/>
  <path d="M48.62,85.53 C47.14,84.66 45.6,84.07 43.85,84.05 C43.05,84.04 42.26,84.15 41.49,84.35 C40.88,84.51 40.21,84.81 39.66,84.32 C38.09,82.93 41.37,81.37 42.32,81.09 C44.36,80.49 46.66,80.85 48.42,82.06 C49.12,82.54 49.86,83.2 50.21,83.99 C50.63,84.98 49.65,86.1 48.62,85.53 Z" fill="#1A1717"/>
  <path d="M21.245,82.578 C23.159,82.813 24.512,84.607 24.269,86.586 C24.026,88.565 22.278,89.979 20.365,89.744 C18.452,89.509 17.099,87.714 17.342,85.735 C17.585,83.756 19.332,82.343 21.245,82.578 Z" fill="#1A1717"/>
  <path d="M44.604,85.454 C46.517,85.689 47.871,87.483 47.628,89.462 C47.385,91.441 45.637,92.855 43.724,92.62 C41.811,92.385 40.457,90.59 40.7,88.611 C40.943,86.633 42.691,85.219 44.604,85.454 Z" fill="#1A1717"/>
  <path id="nose_1_" d="M34.4,94.42 C34.33,94.38 34.26,94.35 34.18,94.33 L29.21,93.72 C29.13,93.72 29.05,93.73 28.98,93.75 C28.51,93.88 28.2,94.31 28.35,94.84 C28.5,95.36 29.32,96.88 31.31,97.12 C33.3,97.36 34.46,96.09 34.74,95.62 C35.02,95.15 34.83,94.66 34.4,94.42 Z" fill="#33251F"/>
  <path id="mouth_1_" d="M36.9,100.49 C34.5,101.55 27.17,100.65 25.09,99.04 C23.9,98.12 22.44,99.13 22.83,100.36 C23.21,101.57 26.89,104.72 30.35,105.15 C33.81,105.58 38.09,103.4 38.75,102.31 C39.43,101.21 38.28,99.88 36.9,100.49 Z" fill="#1A1717"/>
  <path id="hair_2_" d="M38.17,49.36 L38.17,49.36 C38.17,49.36 38.16,49.36 38.16,49.36 C38.16,49.36 38.15,49.36 38.15,49.36 L38.15,49.36 C6.22,45.61 8.28,82.86 8.28,82.86 C8.28,82.86 9.25,86.79 9.7,88.53 C9.76,88.78 10.11,88.8 10.2,88.55 C11.26,85.59 14.07,74.84 15.71,71.71 C16.68,69.86 18.82,68.99 20.81,69.6 C25.77,71.13 34.36,72.55 34.38,72.55 C39.88,73.22 45.91,73.38 49.1,73.19 C51.18,73.07 53.05,74.44 53.54,76.47 C54.37,79.89 55.48,90.94 55.79,94.11 C55.82,94.37 56.16,94.44 56.28,94.21 L59.04,89.08 C59.05,89.09 70.06,53.45 38.17,49.36 Z" fill="#232020"/>
  <path id="hairHighlights" d="M59.05,89.09 C59.05,89.09 70.06,53.45 38.17,49.36 L38.17,49.36 C38.17,49.36 38.16,49.36 38.16,49.36 L38.16,49.36 C38.16,49.36 38.15,49.36 38.15,49.36 L38.15,49.36 C37.65,49.3 37.17,49.25 36.69,49.21 C35.73,49.13 34.81,49.09 33.91,49.09 C33.9,49.09 33.89,49.09 33.88,49.09 C33.82,49.09 33.76,49.09 33.69,49.09 C6.42,49.18 8.28,82.86 8.28,82.86 L9.71,88.51 C9.77,88.76 10.12,88.78 10.21,88.54 C11.28,85.55 14.08,74.84 15.71,71.72 C16.68,69.87 18.82,68.99 20.81,69.61 C23.87,70.56 28.76,71.87 34.26,72.55 C34.28,72.55 35.26,72.79 35.28,72.8 C35.3,72.8 35.32,72.81 35.34,72.81 C40.84,73.48 45.9,73.39 49.1,73.21 C51.18,73.09 53.05,74.46 53.54,76.49 C54.37,79.93 55.49,91.06 55.8,94.17 C55.82,94.43 56.16,94.49 56.29,94.27 C57.15,92.69 59.05,89.09 59.05,89.09 Z" fill="url(#hairHighlights_2_)"/>
  <path d="M78.41,3.74 C67.87,3.74 64,14.5 64,14.5 C64,14.5 60.18,3.74 49.57,3.74 C41.6,3.74 32.5,10.06 35.86,24.42 C39.22,38.78 64.02,56.68 64.02,56.68 C64.02,56.68 88.74,38.78 92.1,24.42 C95.46,10.06 87.02,3.74 78.41,3.74 Z" fill="#EF5592"/>
  <path d="M47.94,4.81 C56.21,4.81 60.32,13.7 61.65,17.31 C61.84,17.82 62.56,17.84 62.77,17.34 L63.98,14.51 C62.27,9.06 57.58,3.74 49.57,3.74 C46.25,3.74 42.75,4.84 40.02,7.15 C42.42,5.56 45.25,4.81 47.94,4.81 Z" fill="#DA2E75"/>
  <path d="M78.41,3.74 C75.86,3.74 73.71,4.48 71.9,5.59 C73.17,5.1 74.58,4.81 76.13,4.81 C83.93,4.81 90.9,10.72 87.75,24.39 C85.05,36.12 69.25,50.35 64.43,55.78 C64.12,56.13 64.02,56.69 64.02,56.69 C64.02,56.69 88.74,38.79 92.1,24.43 C95.46,10.06 86.38,3.74 78.41,3.74 Z" fill="#DA2E75"/>
  <path d="M41.4,11.36 C43.2,9.11 46.43,7.25 49.16,9.39 C50.64,10.55 49.99,12.93 48.67,13.93 C46.74,15.39 45.07,16.27 43.9,18.56 C43.2,19.94 42.77,21.44 42.56,22.98 C42.48,23.59 41.68,23.73 41.38,23.2 C39.34,19.6 38.77,14.65 41.4,11.36 Z" fill="#F386AB"/>
  <path d="M70.31,16.09 C69.46,16.09 68.87,15.27 69.18,14.48 C69.75,13.03 70.49,11.62 71.38,10.37 C72.7,8.52 75.2,7.45 76.79,8.56 C78.42,9.71 78.21,11.99 77.06,13.1 C74.61,15.49 71.53,16.09 70.31,16.09 Z" fill="#F386AB"/>
  <path d="M101,111.11 L97.24,111.11 L93.48,111.11 C84.78,110.45 71.91,114.36 69,124 L97.23,124 L125.46,124 C122.57,114.36 109.69,110.45 101,111.11 Z" fill="url(#SVGID_2_)"/>
  <path id="neck" d="M97,117.83 L97,117.83 C93.24,117.83 90.2,114.78 90.2,111.03 L90.2,106.49 L103.81,106.49 L103.81,111.03 C103.8,114.79 100.75,117.83 97,117.83 Z" fill="#99674F"/>
  <path d="M112,79.66 L106.82,80.3 L78.79,83.74 L73.61,84.38 C69.47,84.89 66.53,88.91 67.07,93.32 C67.61,97.73 71.44,100.92 75.58,100.41 L80.76,99.77 L108.79,96.33 L113.97,95.69 C118.11,95.18 121.05,91.16 120.51,86.75 C119.97,82.35 116.14,79.16 112,79.66 Z" fill="#99674F"/>
  <path d="M89.33,53.67 L89.33,53.67 L89.33,53.67 C77.11,55.17 67.39,69.63 69.7,88.44 C72,107.15 84.79,114.96 96.67,113.51 C108.55,112.05 119.07,101.37 116.78,82.66 C114.47,63.85 101.55,52.17 89.33,53.67 Z" fill="#BA8D68"/>
  <path d="M74.86,84.31 C76.71,80.87 81.94,80.12 84.91,82.49 C85.42,82.9 85.98,83.45 85.72,84.17 C85.43,84.97 84.64,84.94 83.97,84.76 C82.18,84.28 80.38,84.19 78.59,84.79 C77.82,85.05 77.18,85.46 76.46,85.82 C75.49,86.3 74.33,85.37 74.86,84.31 Z" fill="#613E31"/>
  <path d="M107.69,82 C106.04,81.51 104.41,81.31 102.7,81.72 C101.93,81.91 101.18,82.21 100.48,82.59 C99.93,82.89 99.34,83.34 98.69,83.01 C96.83,82.04 99.64,79.73 100.49,79.23 C102.33,78.15 104.65,77.95 106.64,78.7 C107.43,79 108.31,79.46 108.84,80.14 C109.51,80.98 108.83,82.3 107.69,82 Z" fill="#613E31"/>
  <path d="M84.323,88.908 C84.566,90.887 83.212,92.681 81.299,92.916 C79.386,93.151 77.638,91.738 77.395,89.759 C77.152,87.78 78.506,85.985 80.419,85.75 C82.332,85.515 84.08,86.929 84.323,88.908 Z" fill="#49362E"/>
  <path d="M107.682,86.037 C107.925,88.016 106.571,89.81 104.658,90.045 C102.745,90.28 100.997,88.867 100.754,86.888 C100.511,84.909 101.865,83.114 103.778,82.879 C105.691,82.644 107.439,84.058 107.682,86.037 Z" fill="#49362E"/>
  <path id="nose_173_" d="M96.04,94.06 C95.96,94.04 95.88,94.03 95.81,94.03 L90.84,94.64 C90.77,94.66 90.69,94.69 90.62,94.73 C90.19,94.97 90,95.46 90.28,95.94 C90.55,96.41 91.71,97.68 93.71,97.44 C95.7,97.2 96.52,95.68 96.67,95.16 C96.82,94.63 96.52,94.19 96.04,94.06 Z" fill="#99674F"/>
  <path id="mouth_99_" d="M99.94,99.35 C97.87,100.96 90.53,101.86 88.13,100.8 C86.75,100.19 85.58,101.52 86.26,102.63 C86.92,103.71 91.25,105.88 94.71,105.46 C98.17,105.04 101.79,101.89 102.18,100.68 C102.57,99.44 101.13,98.43 99.94,99.35 Z" fill="#5D4037"/>
  <path id="hair_588_" d="M88.81,49.43 L88.81,49.43 C88.81,49.43 88.8,49.43 88.8,49.43 C88.8,49.43 88.79,49.43 88.79,49.43 L88.79,49.43 C56.9,53.53 67.91,89.17 67.91,89.17 C67.91,89.17 69.8,92.75 70.66,94.33 C70.78,94.56 71.13,94.49 71.15,94.23 C71.46,91.1 71.59,79.99 72.42,76.56 C72.91,74.53 74.78,73.17 76.86,73.28 C82.05,73.56 90.72,72.87 90.74,72.86 C96.24,72.19 102.12,70.87 105.18,69.92 C107.17,69.3 109.32,70.18 110.28,72.03 C111.91,75.15 115.67,85.6 116.74,88.6 C116.83,88.85 117.18,88.83 117.24,88.57 L118.67,82.93 C118.68,82.93 120.74,45.69 88.81,49.43 Z" fill="#543930"/>
  <path id="hairHighlights_1_" d="M118.68,82.93 C118.68,82.93 120.74,45.68 88.81,49.43 L88.81,49.43 C88.81,49.43 88.8,49.43 88.8,49.43 L88.8,49.43 C88.8,49.43 88.79,49.43 88.79,49.43 L88.79,49.43 C88.29,49.49 87.81,49.56 87.33,49.64 C86.38,49.8 85.48,49.98 84.61,50.2 C84.6,50.2 84.59,50.2 84.58,50.21 C84.52,50.23 84.46,50.24 84.4,50.26 C57.95,56.94 67.91,89.17 67.91,89.17 L70.66,94.3 C70.78,94.53 71.12,94.46 71.15,94.2 C71.46,91.04 71.59,79.98 72.42,76.55 C72.91,74.52 74.78,73.15 76.86,73.27 C80.06,73.45 85.12,73.54 90.62,72.87 C90.64,72.87 91.65,72.86 91.67,72.86 C91.69,72.86 91.71,72.86 91.73,72.85 C97.23,72.18 102.12,70.86 105.18,69.91 C107.17,69.29 109.32,70.17 110.28,72.02 C111.92,75.16 115.7,85.68 116.75,88.63 C116.84,88.87 117.18,88.86 117.25,88.61 C117.7,86.88 118.68,82.93 118.68,82.93 Z" fill="url(#hairHighlights_3_)"/>
</svg>
